X:21701
T:Kesh, The
R:Jig
B:Tuneworks Tunebook 2 (https://www.tuneworks.co.uk/)
G:Tuneworks
Z:Jon Warbrick <jon.warbrick@googlemail.com>
M:6/8
L:1/8
K:G
|: "G" G3 GAB | "D" A3 ABd | "C" edd gdd | edB"D" dBA |
"G" G3 GAB | "D" A3 ABd | "C" edd gdB | "D" ABA"G" G3 :|
|: "G" BAB dBd | "C" ege dBA | "G" BAB dBG | "D" ABA AGA |
"G" BAB dBd | "C" ege"G" dBd | "C" gfg"D" aga | "G" bgg g3 :|